wp-content/themes/sd-accesslasers/public/images/home/technology/wave-length-selection.svg

<?xml version="1.0" encoding="UTF-8"?>
<svg width="446px" height="260px" viewBox="0 0 446 260" version="1.1" xmlns="http://www.w3.org/2000/svg" xmlns:xlink="http://www.w3.org/1999/xlink">
    <!-- Generator: Sketch 55 (78076) - https://sketchapp.com -->
    <title>Wavelength Selection</title>
    <desc>Created with Sketch.</desc>
    <g id="Home" stroke="none" stroke-width="1" fill="none" fill-rule="evenodd">
        <g id="AL_Home" transform="translate(-736.000000, -5432.000000)">
            <g id="Compare-Technologies" transform="translate(150.000000, 4912.000000)">
                <g id="2" transform="translate(556.000000, 235.000000)">
                    <g id="img" transform="translate(0.000000, 205.000000)">
                        <g id="bg"></g>
                        <g id="icon" transform="translate(61.000000, 132.000000)" fill="#2C2E32">
                            <path d="M1,153 L1,153 C1.55228475,153 2,153.447715 2,154 L2,155 L0,155 L0,154 C-6.76353751e-17,153.447715 0.44771525,153 1,153 Z" id="Rectangle"></path>
                            <path d="M6,126 L6,126 C6.55228475,126 7,126.447715 7,127 L7,155 L5,155 L5,127 C5,126.447715 5.44771525,126 6,126 Z" id="Rectangle-Copy"></path>
                            <path d="M11,131 L11,131 C11.5522847,131 12,131.447715 12,132 L12,155 L10,155 L10,132 C10,131.447715 10.4477153,131 11,131 Z" id="Rectangle-Copy-21"></path>
                            <path d="M16,108 L16,108 C16.5522847,108 17,108.447715 17,109 L17,155 L15,155 L15,109 C15,108.447715 15.4477153,108 16,108 Z" id="Rectangle-Copy-2"></path>
                            <path d="M21,80 L21,80 C21.5522847,80 22,80.4477153 22,81 L22,155 L20,155 L20,81 C20,80.4477153 20.4477153,80 21,80 Z" id="Rectangle-Copy-22"></path>
                            <path d="M26,49 L26,49 C26.5522847,49 27,49.4477153 27,50 L27,155 L25,155 L25,50 C25,49.4477153 25.4477153,49 26,49 Z" id="Rectangle-Copy-23"></path>
                            <path d="M31,67 L31,67 C31.5522847,67 32,67.4477153 32,68 L32,155 L30,155 L30,68 C30,67.4477153 30.4477153,67 31,67 Z" id="Rectangle-Copy-3"></path>
                            <path d="M36,58 L36,58 C36.5522847,58 37,58.4477153 37,59 L37,155 L35,155 L35,59 C35,58.4477153 35.4477153,58 36,58 Z" id="Rectangle-Copy-24"></path>
                            <path d="M41,46 L41,46 C41.5522847,46 42,46.4477153 42,47 L42,155 L40,155 L40,47 C40,46.4477153 40.4477153,46 41,46 Z" id="Rectangle-Copy-8"></path>
                            <path d="M46,59 L46,59 C46.5522847,59 47,59.4477153 47,60 L47,155 L45,155 L45,60 C45,59.4477153 45.4477153,59 46,59 Z" id="Rectangle-Copy-25"></path>
                            <path d="M51,62 L51,62 C51.5522847,62 52,62.4477153 52,63 L52,155 L50,155 L50,63 C50,62.4477153 50.4477153,62 51,62 Z" id="Rectangle-Copy-9"></path>
                            <path d="M56,72 L56,72 C56.5522847,72 57,72.4477153 57,73 L57,155 L55,155 L55,73 C55,72.4477153 55.4477153,72 56,72 Z" id="Rectangle-Copy-26"></path>
                            <path d="M62,91 L62,91 C62.5522847,91 63,91.4477153 63,92 L63,155 L61,155 L61,92 C61,91.4477153 61.4477153,91 62,91 Z" id="Rectangle-Copy-27"></path>
                            <path d="M67,105 L67,105 C67.5522847,105 68,105.447715 68,106 L68,155 L66,155 L66,106 C66,105.447715 66.4477153,105 67,105 Z" id="Rectangle-Copy-10"></path>
                            <path d="M72,105 L72,105 C72.5522847,105 73,105.447715 73,106 L73,155 L71,155 L71,106 C71,105.447715 71.4477153,105 72,105 Z" id="Rectangle-Copy-28"></path>
                            <path d="M82,137 L82,137 C82.5522847,137 83,137.447715 83,138 L83,155 L81,155 L81,138 C81,137.447715 81.4477153,137 82,137 Z" id="Rectangle-Copy-11"></path>
                            <path d="M87,105 L87,105 C87.5522847,105 88,105.447715 88,106 L88,155 L86,155 L86,106 C86,105.447715 86.4477153,105 87,105 Z" id="Rectangle-Copy-29"></path>
                            <path d="M92,45 L92,45 C92.5522847,45 93,45.4477153 93,46 L93,155 L91,155 L91,46 C91,45.4477153 91.4477153,45 92,45 Z" id="Rectangle-Copy-12"></path>
                            <path d="M97,64 L97,64 C97.5522847,64 98,64.4477153 98,65 L98,155 L96,155 L96,65 C96,64.4477153 96.4477153,64 97,64 Z" id="Rectangle-Copy-13"></path>
                            <path d="M102,46 L102,46 C102.552285,46 103,46.4477153 103,47 L103,155 L101,155 L101,47 C101,46.4477153 101.447715,46 102,46 Z" id="Rectangle-Copy-30"></path>
                            <path d="M107,32 L107,32 C107.552285,32 108,32.4477153 108,33 L108,155 L106,155 L106,33 C106,32.4477153 106.447715,32 107,32 Z" id="Rectangle-Copy-31"></path>
                            <path d="M112,37 L112,37 C112.552285,37 113,37.4477153 113,38 L113,155 L111,155 L111,38 C111,37.4477153 111.447715,37 112,37 Z" id="Rectangle-Copy-14"></path>
                            <path d="M117,32 L117,32 C117.552285,32 118,32.4477153 118,33 L118,155 L116,155 L116,33 C116,32.4477153 116.447715,32 117,32 Z" id="Rectangle-Copy-32"></path>
                            <path d="M122,27 L122,27 C122.552285,27 123,27.4477153 123,28 L123,155 L121,155 L121,28 C121,27.4477153 121.447715,27 122,27 Z" id="Rectangle-Copy-15"></path>
                            <path d="M127,32 L127,32 C127.552285,32 128,32.4477153 128,33 L128,155 L126,155 L126,33 C126,32.4477153 126.447715,32 127,32 Z" id="Rectangle-Copy-16"></path>
                            <path d="M132,46 L132,46 C132.552285,46 133,46.4477153 133,47 L133,155 L131,155 L131,47 C131,46.4477153 131.447715,46 132,46 Z" id="Rectangle-Copy-17"></path>
                            <path d="M137,55 L137,55 C137.552285,55 138,55.4477153 138,56 L138,155 L136,155 L136,56 C136,55.4477153 136.447715,55 137,55 Z" id="Rectangle-Copy-18"></path>
                            <path d="M142,64 L142,64 C142.552285,64 143,64.4477153 143,65 L143,155 L141,155 L141,65 C141,64.4477153 141.447715,64 142,64 Z" id="Rectangle-Copy-19"></path>
                            <path d="M147,68 L147,68 C147.552285,68 148,68.4477153 148,69 L148,155 L146,155 L146,69 C146,68.4477153 146.447715,68 147,68 Z" id="Rectangle-Copy-33"></path>
                            <path d="M152,78 L152,78 C152.552285,78 153,78.4477153 153,79 L153,155 L151,155 L151,79 C151,78.4477153 151.447715,78 152,78 Z" id="Rectangle-Copy-34"></path>
                            <path d="M157,91 L157,91 C157.552285,91 158,91.4477153 158,92 L158,155 L156,155 L156,92 C156,91.4477153 156.447715,91 157,91 Z" id="Rectangle-Copy-35"></path>
                            <path d="M162,114 L162,114 C162.552285,114 163,114.447715 163,115 L163,155 L161,155 L161,115 C161,114.447715 161.447715,114 162,114 Z" id="Rectangle-Copy-36"></path>
                            <path d="M167,128 L167,128 C167.552285,128 168,128.447715 168,129 L168,155 L166,155 L166,129 C166,128.447715 166.447715,128 167,128 Z" id="Rectangle-Copy-37"></path>
                            <path d="M172,136 L172,136 C172.552285,136 173,136.447715 173,137 L173,155 L171,155 L171,137 C171,136.447715 171.447715,136 172,136 Z" id="Rectangle-Copy-38"></path>
                            <path d="M188,113 L188,113 C188.552285,113 189,113.447715 189,114 L189,155 L187,155 L187,114 C187,113.447715 187.447715,113 188,113 Z" id="Rectangle-Copy-20"></path>
                            <path d="M193,95 L193,95 C193.552285,95 194,95.4477153 194,96 L194,155 L192,155 L192,96 C192,95.4477153 192.447715,95 193,95 Z" id="Rectangle-Copy-39"></path>
                            <path d="M198,73 L198,73 C198.552285,73 199,73.4477153 199,74 L199,155 L197,155 L197,74 C197,73.4477153 197.447715,73 198,73 Z" id="Rectangle-Copy-40"></path>
                            <path d="M203,63 L203,63 C203.552285,63 204,63.4477153 204,64 L204,155 L202,155 L202,64 C202,63.4477153 202.447715,63 203,63 Z" id="Rectangle-Copy-41"></path>
                            <path d="M208,50 L208,50 C208.552285,50 209,50.4477153 209,51 L209,155 L207,155 L207,51 C207,50.4477153 207.447715,50 208,50 Z" id="Rectangle-Copy-42"></path>
                            <path d="M213,41 L213,41 C213.552285,41 214,41.4477153 214,42 L214,155 L212,155 L212,42 C212,41.4477153 212.447715,41 213,41 Z" id="Rectangle-Copy-43"></path>
                            <path d="M218,32 L218,32 C218.552285,32 219,32.4477153 219,33 L219,155 L217,155 L217,33 C217,32.4477153 217.447715,32 218,32 Z" id="Rectangle-Copy-44"></path>
                            <path d="M223,32 L223,32 C223.552285,32 224,32.4477153 224,33 L224,155 L222,155 L222,33 C222,32.4477153 222.447715,32 223,32 Z" id="Rectangle-Copy-45"></path>
                            <path d="M228,18 L228,18 C228.552285,18 229,18.4477153 229,19 L229,155 L227,155 L227,19 C227,18.4477153 227.447715,18 228,18 Z" id="Rectangle-Copy-46"></path>
                            <path d="M233,9 L233,9 C233.552285,9 234,9.44771525 234,10 L234,155 L232,155 L232,10 C232,9.44771525 232.447715,9 233,9 Z" id="Rectangle-Copy-47"></path>
                            <path d="M238,5 L238,5 C238.552285,5 239,5.44771525 239,6 L239,155 L237,155 L237,6 C237,5.44771525 237.447715,5 238,5 Z" id="Rectangle-Copy-48"></path>
                            <path d="M243,18 L243,18 C243.552285,18 244,18.4477153 244,19 L244,155 L242,155 L242,19 C242,18.4477153 242.447715,18 243,18 Z" id="Rectangle-Copy-49"></path>
                            <path d="M248,5 L248,5 C248.552285,5 249,5.44771525 249,6 L249,155 L247,155 L247,6 C247,5.44771525 247.447715,5 248,5 Z" id="Rectangle-Copy-50"></path>
                            <path d="M253,19 L253,19 C253.552285,19 254,19.4477153 254,20 L254,155 L252,155 L252,20 C252,19.4477153 252.447715,19 253,19 Z" id="Rectangle-Copy-51"></path>
                            <path d="M258,5 L258,5 C258.552285,5 259,5.44771525 259,6 L259,155 L257,155 L257,6 C257,5.44771525 257.447715,5 258,5 Z" id="Rectangle-Copy-52"></path>
                            <path d="M263,14 L263,14 C263.552285,14 264,14.4477153 264,15 L264,155 L262,155 L262,15 C262,14.4477153 262.447715,14 263,14 Z" id="Rectangle-Copy-53"></path>
                            <path d="M268,23 L268,23 C268.552285,23 269,23.4477153 269,24 L269,155 L267,155 L267,24 C267,23.4477153 267.447715,23 268,23 Z" id="Rectangle-Copy-54"></path>
                            <path d="M273,32 L273,32 C273.552285,32 274,32.4477153 274,33 L274,155 L272,155 L272,33 C272,32.4477153 272.447715,32 273,32 Z" id="Rectangle-Copy-55"></path>
                            <path d="M278,50 L278,50 C278.552285,50 279,50.4477153 279,51 L279,155 L277,155 L277,51 C277,50.4477153 277.447715,50 278,50 Z" id="Rectangle-Copy-56"></path>
                            <path d="M288,64 L288,64 C288.552285,64 289,64.4477153 289,65 L289,155 L287,155 L287,65 C287,64.4477153 287.447715,64 288,64 Z" id="Rectangle-Copy-57"></path>
                            <path d="M293,37 L293,37 C293.552285,37 294,37.4477153 294,38 L294,155 L292,155 L292,38 C292,37.4477153 292.447715,37 293,37 Z" id="Rectangle-Copy-58"></path>
                            <path d="M298,23 L298,23 C298.552285,23 299,23.4477153 299,24 L299,155 L297,155 L297,24 C297,23.4477153 297.447715,23 298,23 Z" id="Rectangle-Copy-59"></path>
                            <path d="M303,18 L303,18 C303.552285,18 304,18.4477153 304,19 L304,155 L302,155 L302,19 C302,18.4477153 302.447715,18 303,18 Z" id="Rectangle-Copy-60"></path>
                            <path d="M308,5 L308,5 C308.552285,5 309,5.44771525 309,6 L309,155 L307,155 L307,6 C307,5.44771525 307.447715,5 308,5 Z" id="Rectangle-Copy-61"></path>
                            <path d="M313,5 L313,5 C313.552285,5 314,5.44771525 314,6 L314,155 L312,155 L312,6 C312,5.44771525 312.447715,5 313,5 Z" id="Rectangle-Copy-62"></path>
                            <path d="M318,5 L318,5 C318.552285,5 319,5.44771525 319,6 L319,155 L317,155 L317,6 C317,5.44771525 317.447715,5 318,5 Z" id="Rectangle-Copy-63"></path>
                            <path d="M323,0 L323,0 C323.552285,-1.01453063e-16 324,0.44771525 324,1 L324,155 L322,155 L322,1 C322,0.44771525 322.447715,1.01453063e-16 323,0 Z" id="Rectangle-Copy-64"></path>
                            <path d="M328,5 L328,5 C328.552285,5 329,5.44771525 329,6 L329,155 L327,155 L327,6 C327,5.44771525 327.447715,5 328,5 Z" id="Rectangle-Copy-65"></path>
                            <path d="M333,19 L333,19 C333.552285,19 334,19.4477153 334,20 L334,155 L332,155 L332,20 C332,19.4477153 332.447715,19 333,19 Z" id="Rectangle-Copy-66"></path>
                            <path d="M338,5 L338,5 C338.552285,5 339,5.44771525 339,6 L339,155 L337,155 L337,6 C337,5.44771525 337.447715,5 338,5 Z" id="Rectangle-Copy-67"></path>
                            <path d="M343,23 L343,23 C343.552285,23 344,23.4477153 344,24 L344,155 L342,155 L342,24 C342,23.4477153 342.447715,23 343,23 Z" id="Rectangle-Copy-68"></path>
                            <path d="M348,32 L348,32 C348.552285,32 349,32.4477153 349,33 L349,155 L347,155 L347,33 C347,32.4477153 347.447715,32 348,32 Z" id="Rectangle-Copy-69"></path>
                            <path d="M353,19 L353,19 C353.552285,19 354,19.4477153 354,20 L354,155 L352,155 L352,20 C352,19.4477153 352.447715,19 353,19 Z" id="Rectangle-Copy-70"></path>
                            <path d="M358,28 L358,28 C358.552285,28 359,28.4477153 359,29 L359,155 L357,155 L357,29 C357,28.4477153 357.447715,28 358,28 Z" id="Rectangle-Copy-71"></path>
                            <path d="M363,37 L363,37 C363.552285,37 364,37.4477153 364,38 L364,155 L362,155 L362,38 C362,37.4477153 362.447715,37 363,37 Z" id="Rectangle-Copy-72"></path>
                            <path d="M368,46 L368,46 C368.552285,46 369,46.4477153 369,47 L369,155 L367,155 L367,47 C367,46.4477153 367.447715,46 368,46 Z" id="Rectangle-Copy-73"></path>
                            <path d="M373,59 L373,59 C373.552285,59 374,59.4477153 374,60 L374,155 L372,155 L372,60 C372,59.4477153 372.447715,59 373,59 Z" id="Rectangle-Copy-74"></path>
                            <path d="M378,77 L378,77 C378.552285,77 379,77.4477153 379,78 L379,155 L377,155 L377,78 C377,77.4477153 377.447715,77 378,77 Z" id="Rectangle-Copy-75"></path>
                            <path d="M383,96 L383,96 C383.552285,96 384,96.4477153 384,97 L384,155 L382,155 L382,97 C382,96.4477153 382.447715,96 383,96 Z" id="Rectangle-Copy-76"></path>
                        </g>
                    </g>
                </g>
            </g>
        </g>
    </g>
</svg>

<svg width="446" height="260" viewBox="0 0 446 260" version="1.1" xmlns="http://www.w3.org/2000/svg"><g id="Home" stroke="none" stroke-width="1" fill="none" fill-rule="evenodd"><g id="AL_Home" transform="translate(-736 -5432)"><g id="Compare-Technologies" transform="translate(150 4912)"><g id="2" transform="translate(556 235)"><g id="img" transform="translate(0 205)"><g id="icon" transform="translate(61 132)" fill="#2C2E32"><path d="M1 153a1 1 0 0 1 1 1v1H0v-1a1 1 0 0 1 1-1z" id="Rectangle"/><path d="M6 126a1 1 0 0 1 1 1v28H5v-28a1 1 0 0 1 1-1z" id="Rectangle-Copy"/><path d="M11 131a1 1 0 0 1 1 1v23h-2v-23a1 1 0 0 1 1-1z" id="Rectangle-Copy-21"/><path d="M16 108a1 1 0 0 1 1 1v46h-2v-46a1 1 0 0 1 1-1z" id="Rectangle-Copy-2"/><path d="M21 80a1 1 0 0 1 1 1v74h-2V81a1 1 0 0 1 1-1z" id="Rectangle-Copy-22"/><path d="M26 49a1 1 0 0 1 1 1v105h-2V50a1 1 0 0 1 1-1z" id="Rectangle-Copy-23"/><path d="M31 67a1 1 0 0 1 1 1v87h-2V68a1 1 0 0 1 1-1z" id="Rectangle-Copy-3"/><path d="M36 58a1 1 0 0 1 1 1v96h-2V59a1 1 0 0 1 1-1z" id="Rectangle-Copy-24"/><path d="M41 46a1 1 0 0 1 1 1v108h-2V47a1 1 0 0 1 1-1z" id="Rectangle-Copy-8"/><path d="M46 59a1 1 0 0 1 1 1v95h-2V60a1 1 0 0 1 1-1z" id="Rectangle-Copy-25"/><path d="M51 62a1 1 0 0 1 1 1v92h-2V63a1 1 0 0 1 1-1z" id="Rectangle-Copy-9"/><path d="M56 72a1 1 0 0 1 1 1v82h-2V73a1 1 0 0 1 1-1z" id="Rectangle-Copy-26"/><path d="M62 91a1 1 0 0 1 1 1v63h-2V92a1 1 0 0 1 1-1z" id="Rectangle-Copy-27"/><path d="M67 105a1 1 0 0 1 1 1v49h-2v-49a1 1 0 0 1 1-1z" id="Rectangle-Copy-10"/><path d="M72 105a1 1 0 0 1 1 1v49h-2v-49a1 1 0 0 1 1-1z" id="Rectangle-Copy-28"/><path d="M82 137a1 1 0 0 1 1 1v17h-2v-17a1 1 0 0 1 1-1z" id="Rectangle-Copy-11"/><path d="M87 105a1 1 0 0 1 1 1v49h-2v-49a1 1 0 0 1 1-1z" id="Rectangle-Copy-29"/><path d="M92 45a1 1 0 0 1 1 1v109h-2V46a1 1 0 0 1 1-1z" id="Rectangle-Copy-12"/><path d="M97 64a1 1 0 0 1 1 1v90h-2V65a1 1 0 0 1 1-1z" id="Rectangle-Copy-13"/><path d="M102 46a1 1 0 0 1 1 1v108h-2V47a1 1 0 0 1 1-1z" id="Rectangle-Copy-30"/><path d="M107 32a1 1 0 0 1 1 1v122h-2V33a1 1 0 0 1 1-1z" id="Rectangle-Copy-31"/><path d="M112 37a1 1 0 0 1 1 1v117h-2V38a1 1 0 0 1 1-1z" id="Rectangle-Copy-14"/><path d="M117 32a1 1 0 0 1 1 1v122h-2V33a1 1 0 0 1 1-1z" id="Rectangle-Copy-32"/><path d="M122 27a1 1 0 0 1 1 1v127h-2V28a1 1 0 0 1 1-1z" id="Rectangle-Copy-15"/><path d="M127 32a1 1 0 0 1 1 1v122h-2V33a1 1 0 0 1 1-1z" id="Rectangle-Copy-16"/><path d="M132 46a1 1 0 0 1 1 1v108h-2V47a1 1 0 0 1 1-1z" id="Rectangle-Copy-17"/><path d="M137 55a1 1 0 0 1 1 1v99h-2V56a1 1 0 0 1 1-1z" id="Rectangle-Copy-18"/><path d="M142 64a1 1 0 0 1 1 1v90h-2V65a1 1 0 0 1 1-1z" id="Rectangle-Copy-19"/><path d="M147 68a1 1 0 0 1 1 1v86h-2V69a1 1 0 0 1 1-1z" id="Rectangle-Copy-33"/><path d="M152 78a1 1 0 0 1 1 1v76h-2V79a1 1 0 0 1 1-1z" id="Rectangle-Copy-34"/><path d="M157 91a1 1 0 0 1 1 1v63h-2V92a1 1 0 0 1 1-1z" id="Rectangle-Copy-35"/><path d="M162 114a1 1 0 0 1 1 1v40h-2v-40a1 1 0 0 1 1-1z" id="Rectangle-Copy-36"/><path d="M167 128a1 1 0 0 1 1 1v26h-2v-26a1 1 0 0 1 1-1z" id="Rectangle-Copy-37"/><path d="M172 136a1 1 0 0 1 1 1v18h-2v-18a1 1 0 0 1 1-1z" id="Rectangle-Copy-38"/><path d="M188 113a1 1 0 0 1 1 1v41h-2v-41a1 1 0 0 1 1-1z" id="Rectangle-Copy-20"/><path d="M193 95a1 1 0 0 1 1 1v59h-2V96a1 1 0 0 1 1-1z" id="Rectangle-Copy-39"/><path d="M198 73a1 1 0 0 1 1 1v81h-2V74a1 1 0 0 1 1-1z" id="Rectangle-Copy-40"/><path d="M203 63a1 1 0 0 1 1 1v91h-2V64a1 1 0 0 1 1-1z" id="Rectangle-Copy-41"/><path d="M208 50a1 1 0 0 1 1 1v104h-2V51a1 1 0 0 1 1-1z" id="Rectangle-Copy-42"/><path d="M213 41a1 1 0 0 1 1 1v113h-2V42a1 1 0 0 1 1-1z" id="Rectangle-Copy-43"/><path d="M218 32a1 1 0 0 1 1 1v122h-2V33a1 1 0 0 1 1-1z" id="Rectangle-Copy-44"/><path d="M223 32a1 1 0 0 1 1 1v122h-2V33a1 1 0 0 1 1-1z" id="Rectangle-Copy-45"/><path d="M228 18a1 1 0 0 1 1 1v136h-2V19a1 1 0 0 1 1-1z" id="Rectangle-Copy-46"/><path d="M233 9a1 1 0 0 1 1 1v145h-2V10a1 1 0 0 1 1-1z" id="Rectangle-Copy-47"/><path d="M238 5a1 1 0 0 1 1 1v149h-2V6a1 1 0 0 1 1-1z" id="Rectangle-Copy-48"/><path d="M243 18a1 1 0 0 1 1 1v136h-2V19a1 1 0 0 1 1-1z" id="Rectangle-Copy-49"/><path d="M248 5a1 1 0 0 1 1 1v149h-2V6a1 1 0 0 1 1-1z" id="Rectangle-Copy-50"/><path d="M253 19a1 1 0 0 1 1 1v135h-2V20a1 1 0 0 1 1-1z" id="Rectangle-Copy-51"/><path d="M258 5a1 1 0 0 1 1 1v149h-2V6a1 1 0 0 1 1-1z" id="Rectangle-Copy-52"/><path d="M263 14a1 1 0 0 1 1 1v140h-2V15a1 1 0 0 1 1-1z" id="Rectangle-Copy-53"/><path d="M268 23a1 1 0 0 1 1 1v131h-2V24a1 1 0 0 1 1-1z" id="Rectangle-Copy-54"/><path d="M273 32a1 1 0 0 1 1 1v122h-2V33a1 1 0 0 1 1-1z" id="Rectangle-Copy-55"/><path d="M278 50a1 1 0 0 1 1 1v104h-2V51a1 1 0 0 1 1-1z" id="Rectangle-Copy-56"/><path d="M288 64a1 1 0 0 1 1 1v90h-2V65a1 1 0 0 1 1-1z" id="Rectangle-Copy-57"/><path d="M293 37a1 1 0 0 1 1 1v117h-2V38a1 1 0 0 1 1-1z" id="Rectangle-Copy-58"/><path d="M298 23a1 1 0 0 1 1 1v131h-2V24a1 1 0 0 1 1-1z" id="Rectangle-Copy-59"/><path d="M303 18a1 1 0 0 1 1 1v136h-2V19a1 1 0 0 1 1-1z" id="Rectangle-Copy-60"/><path d="M308 5a1 1 0 0 1 1 1v149h-2V6a1 1 0 0 1 1-1z" id="Rectangle-Copy-61"/><path d="M313 5a1 1 0 0 1 1 1v149h-2V6a1 1 0 0 1 1-1z" id="Rectangle-Copy-62"/><path d="M318 5a1 1 0 0 1 1 1v149h-2V6a1 1 0 0 1 1-1z" id="Rectangle-Copy-63"/><path d="M323 0a1 1 0 0 1 1 1v154h-2V1a1 1 0 0 1 1-1z" id="Rectangle-Copy-64"/><path d="M328 5a1 1 0 0 1 1 1v149h-2V6a1 1 0 0 1 1-1z" id="Rectangle-Copy-65"/><path d="M333 19a1 1 0 0 1 1 1v135h-2V20a1 1 0 0 1 1-1z" id="Rectangle-Copy-66"/><path d="M338 5a1 1 0 0 1 1 1v149h-2V6a1 1 0 0 1 1-1z" id="Rectangle-Copy-67"/><path d="M343 23a1 1 0 0 1 1 1v131h-2V24a1 1 0 0 1 1-1z" id="Rectangle-Copy-68"/><path d="M348 32a1 1 0 0 1 1 1v122h-2V33a1 1 0 0 1 1-1z" id="Rectangle-Copy-69"/><path d="M353 19a1 1 0 0 1 1 1v135h-2V20a1 1 0 0 1 1-1z" id="Rectangle-Copy-70"/><path d="M358 28a1 1 0 0 1 1 1v126h-2V29a1 1 0 0 1 1-1z" id="Rectangle-Copy-71"/><path d="M363 37a1 1 0 0 1 1 1v117h-2V38a1 1 0 0 1 1-1z" id="Rectangle-Copy-72"/><path d="M368 46a1 1 0 0 1 1 1v108h-2V47a1 1 0 0 1 1-1z" id="Rectangle-Copy-73"/><path d="M373 59a1 1 0 0 1 1 1v95h-2V60a1 1 0 0 1 1-1z" id="Rectangle-Copy-74"/><path d="M378 77a1 1 0 0 1 1 1v77h-2V78a1 1 0 0 1 1-1z" id="Rectangle-Copy-75"/><path d="M383 96a1 1 0 0 1 1 1v58h-2V97a1 1 0 0 1 1-1z" id="Rectangle-Copy-76"/></g></g></g></g></g></g></svg>
